notebook-edit.svg

<svg fill="currentColor" viewBox="0 0 24 24"><path d="M21.04 13.13c.14 0 .27.06.38.17l1.28 1.28c.22.21.22.56 0 .77l-1 1-2.05-2.05 1-1c.11-.11.25-.17.39-.17m-1.97 1.75 2.05 2.05L15.06 23H13v-2.06zM3 7V5h2V4a2 2 0 0 1 2-2h6v7l2.5-1.5L18 9V2h1c1.05 0 2 .95 2 2v6L11 20v2H7c-1.05 0-2-.95-2-2v-1H3v-2h2v-4H3v-2h2V7zm2 0h2V5H5zm0 4v2h2v-2zm0 6v2h2v-2z"/></svg>

<svg  viewBox="0 0 24 24" fill="currentColor"><path  d="M21.04 13.13C21.18 13.13 21.31 13.19 21.42 13.3L22.7 14.58C22.92 14.79 22.92 15.14 22.7 15.35L21.7 16.35L19.65 14.3L20.65 13.3C20.76 13.19 20.9 13.13 21.04 13.13M19.07 14.88L21.12 16.93L15.06 23H13V20.94L19.07 14.88M3 7V5H5V4C5 2.89 5.9 2 7 2H13V9L15.5 7.5L18 9V2H19C20.05 2 21 2.95 21 4V10L11 20V22H7C5.95 22 5 21.05 5 20V19H3V17H5V13H3V11H5V7H3M5 7H7V5H5V7M5 11V13H7V11H5M5 17V19H7V17H5Z"/></svg>
